X:1050
T:Rocky's Reel
M:C|
L:1/8
C:Brain Duke
R:reel
D:Cian: Three Shouts from a Hill
Z:Devin McCabe
K:C
~c3e gcea|agea gede|~c3e gcea|agec dGed|
!cGcd e~g3|aged (3Bcd e2|fede edcA|1dcAG Aged:|2dcAG ~A3B|
!:c~G3 (3Bcd eg|d~A3 dfed|c~G3 cd (3efg|aege deed|
!c~G3 (3Bcd eg|d~A3 dfed|c~G3 cd (3efg|aege deed:|
